svgs/regular/check-to-slot.svg

<svg xmlns="http://www.w3.org/2000/svg" viewBox="0 0 576 512"><!--! Font Awesome Pro 6.6.0 by @fontawesome - https://fontawesome.com License - https://fontawesome.com/license (Commercial License) Copyright 2024 Fonticons, Inc. --><path d="M144 80l0 280 288 0 0-280L144 80zM96 360L96 80c0-26.5 21.5-48 48-48l288 0c26.5 0 48 21.5 48 48l0 280c13.3 0 24 10.7 24 24s-10.7 24-24 24l-48 0-288 0-48 0c-13.3 0-24-10.7-24-24s10.7-24 24-24zM64 288l0 48-16 0 0 96 480 0 0-96-16 0 0-48 16 0c26.5 0 48 21.5 48 48l0 96c0 26.5-21.5 48-48 48L48 480c-26.5 0-48-21.5-48-48l0-96c0-26.5 21.5-48 48-48l16 0zM385 179.6L278.3 286.3c-4.5 4.5-10.6 7-17 7s-12.5-2.5-17-7L191 233c-9.4-9.4-9.4-24.6 0-33.9s24.6-9.4 33.9 0l36.4 36.4L351 145.7c9.4-9.4 24.6-9.4 33.9 0s9.4 24.6 0 33.9z"/></svg>

<svg xmlns="http://www.w3.org/2000/svg" viewBox="0 0 576 512"><!--! Font Awesome Pro 6.4.2 by @fontawesome - https://fontawesome.com License - https://fontawesome.com/license (Commercial License) Copyright 2023 Fonticons, Inc. --><path d="M144 80V360H432V80H144zM96 360V80c0-26.5 21.5-48 48-48H432c26.5 0 48 21.5 48 48V360c13.3 0 24 10.7 24 24s-10.7 24-24 24H432 144 96c-13.3 0-24-10.7-24-24s10.7-24 24-24zM64 288v48H48l0 96H528V336H512V288h16c26.5 0 48 21.5 48 48v96c0 26.5-21.5 48-48 48H48c-26.5 0-48-21.5-48-48V336c0-26.5 21.5-48 48-48H64zM385 179.6L278.3 286.3c-4.5 4.5-10.6 7-17 7s-12.5-2.5-17-7L191 233c-9.4-9.4-9.4-24.6 0-33.9s24.6-9.4 33.9 0l36.4 36.4L351 145.7c9.4-9.4 24.6-9.4 33.9 0s9.4 24.6 0 33.9z"/></svg>
